svg/color/matic.svg

<svg width="96" height="96" viewBox="0 0 96 96" fill="none" xmlns="http://www.w3.org/2000/svg">
<g id="color/matic">
<path id="Oval" d="M48 96C74.5097 96 96 74.5097 96 48C96 21.4903 74.5097 0 48 0C21.4903 0 0 21.4903 0 48C0 74.5097 21.4903 96 48 96Z" fill="#2B6DEF"/>
<path id="matic" fill-rule="evenodd" clip-rule="evenodd" d="M68.0023 24L58.0138 29.7589L58.0048 29.7582V29.7641V41.2778L57.9694 41.2829L28.0007 24L18.005 29.7597L18 29.7582V29.7626V65.5693L27.9947 71.3319L28.0012 71.2863V71.3294L37.9988 65.5683V52.8082L47.9775 58.5583L47.9832 58.571L47.9914 58.5663L47.9915 58.5664V58.5662L58.0048 52.8336V65.5738L67.9578 71.3102V71.3396L67.9833 71.3249L68.0008 71.335L68.0146 71.3069L77.9555 65.58V29.7897L78 29.7641L68.0023 24Z" fill="white"/>
</g>
</svg>

<svg width="96" height="96" viewBox="0 0 96 96" fill="none" xmlns="http://www.w3.org/2000/svg"><path d="M48 96c26.51 0 48-21.49 48-48S74.51 0 48 0 0 21.49 0 48s21.49 48 48 48z" fill="#2B6DEF"/><path fill-rule="evenodd" clip-rule="evenodd" d="M68.002 24l-9.988 5.759h-.01v11.519l-.035.005L28.001 24l-9.996 5.76-.005-.002V65.57l9.995 5.763.006-.046v.043L38 65.57V52.81l9.978 5.75.006.012.008-.005 10.014-5.732v12.74l9.953 5.736v.03l.025-.015.018.01.014-.028 9.94-5.727V29.79l.045-.026L68.002 24z" fill="#fff"/></svg>
